fs/link_32_filled.svg

<svg viewBox="0 0 32 32" fill="none" xmlns="http://www.w3.org/2000/svg" height="1em" width="1em">
  <path d="M2 16.25C2 12.2459 5.24594 9 9.25 9H12.75C13.4404 9 14 9.55964 14 10.25C14 10.9404 13.4404 11.5 12.75 11.5H9.25C6.62665 11.5 4.5 13.6266 4.5 16.25C4.5 18.8734 6.62665 21 9.25 21H12.75C13.4404 21 14 21.5596 14 22.25C14 22.9404 13.4404 23.5 12.75 23.5H9.25C5.24594 23.5 2 20.2541 2 16.25ZM30 16.25C30 12.2459 26.7541 9 22.75 9H19.25C18.5596 9 18 9.55964 18 10.25C18 10.9404 18.5596 11.5 19.25 11.5H22.75C25.3734 11.5 27.5 13.6266 27.5 16.25C27.5 18.8734 25.3734 21 22.75 21H19.25C18.5596 21 18 21.5596 18 22.25C18 22.9404 18.5596 23.5 19.25 23.5H22.75C26.7541 23.5 30 20.2541 30 16.25ZM9.75 15C9.05964 15 8.5 15.5596 8.5 16.25C8.5 16.9404 9.05964 17.5 9.75 17.5H22.25C22.9404 17.5 23.5 16.9404 23.5 16.25C23.5 15.5596 22.9404 15 22.25 15H9.75Z" fill="#212121"/>
</svg>

<svg viewBox="0 0 32 32" fill="none" xmlns="http://www.w3.org/2000/svg" height="1em" width="1em">
  <path d="M2 16.25A7.25 7.25 0 0 1 9.25 9h3.5a1.25 1.25 0 1 1 0 2.5h-3.5a4.75 4.75 0 1 0 0 9.5h3.5a1.25 1.25 0 1 1 0 2.5h-3.5A7.25 7.25 0 0 1 2 16.25Zm28 0A7.25 7.25 0 0 0 22.75 9h-3.5a1.25 1.25 0 1 0 0 2.5h3.5a4.75 4.75 0 1 1 0 9.5h-3.5a1.25 1.25 0 1 0 0 2.5h3.5A7.25 7.25 0 0 0 30 16.25ZM9.75 15a1.25 1.25 0 1 0 0 2.5h12.5a1.25 1.25 0 1 0 0-2.5H9.75Z" fill="#212121"/>
</svg>
